lib/brands/icons/cloudinary.svg

<svg xmlns="http://www.w3.org/2000/svg" fill="none" aria-hidden="true" viewBox="0 0 48 48"><g id="cloudinary-Icon"><g id="Group"><path id="Vector" fill="#0071CE" d="M38.1596 36.1687C37.6501 36.1687 37.1758 35.8445 37.0086 35.3337C36.8006 34.6979 37.1473 34.0136 37.7834 33.8056C40.0879 33.0513 41.5768 31.0315 41.5768 28.6595C41.5768 25.6555 39.1329 23.2113 36.129 23.2113C35.9203 23.2113 35.6958 23.2278 35.4226 23.2633L34.238 23.4168L34.068 22.2342C33.34 17.1628 28.9223 13.3384 23.7918 13.3384C19.5504 13.3384 15.7745 15.8775 14.1733 19.8074L13.8718 20.5468L13.0739 20.5613C9.40692 20.6288 6.42355 23.6657 6.42355 27.3309C6.42355 30.0065 7.97698 32.4466 10.3809 33.5469C10.9892 33.8255 11.2567 34.5443 10.9781 35.1526C10.6994 35.7609 9.98099 36.0278 9.37272 35.7501C6.10881 34.2562 4 30.9517 4 27.3309C4 22.6192 7.63026 18.6722 12.2415 18.1875C14.3661 13.745 18.819 10.9157 23.7915 10.9157C29.743 10.9157 34.9166 15.0885 36.2582 20.79C40.5388 20.8593 44 24.363 44 28.6598C44 32.0457 41.8044 35.0389 38.537 36.1082C38.412 36.1491 38.2847 36.1687 38.1596 36.1687Z"/><path id="Vector_2" fill="#DC8327" d="M19.6274 36.6928C19.6271 36.6925 19.6271 36.6925 19.6268 36.6925C19.6265 36.6925 19.6262 36.6922 19.6259 36.6922H19.6255L19.6252 36.6919L19.6249 36.6915C19.6249 36.6915 19.6246 36.6915 19.6246 36.6912H19.6243L19.624 36.6909C19.6243 36.6906 19.6236 36.6906 19.6236 36.6906L19.6233 36.6903H19.623L19.6227 36.69C19.623 36.6903 19.6224 36.6897 19.6224 36.6897C19.6224 36.6897 19.6217 36.6893 19.6214 36.6893L19.6211 36.689L19.6208 36.6887L19.6205 36.6884C19.6195 36.6881 19.6198 36.6881 19.6195 36.6881C19.6192 36.6884 19.6192 36.6878 19.6189 36.6878L19.6186 36.6874C19.6186 36.6874 19.6183 36.6871 19.618 36.6871L19.6176 36.6868C19.6173 36.6865 19.6167 36.6865 19.6164 36.6865C19.6161 36.6865 19.6154 36.6862 19.6151 36.6862C19.6148 36.6859 19.6148 36.6859 19.6145 36.6859H19.6142C19.6138 36.6855 19.6135 36.6855 19.6132 36.6855C19.6129 36.6852 19.6123 36.6852 19.6123 36.6852H19.6119L19.6113 36.6849C19.611 36.6849 19.611 36.6846 19.611 36.6846H19.6107C19.592 36.678 19.5721 36.6738 19.5512 36.6729H19.5506H19.55H19.5493C19.5493 36.6729 19.5493 36.6729 19.549 36.6729H19.5487H19.5484L19.5481 36.6726H19.5474H19.5468H19.5465H19.5462H19.5459H19.5452H19.5449H19.5452H19.5449H19.5446H19.5443H19.544H19.5436H19.5433H19.543H19.5427C19.0191 36.6726 18.5906 36.2463 18.5874 35.724V25.0786H19.3991H19.4032C19.5275 25.084 19.6123 24.9885 19.6123 24.8737C19.6123 24.788 19.5598 24.7146 19.4851 24.684L15.5708 21.9823C15.5006 21.9339 15.408 21.9339 15.3378 21.9823L11.3928 24.7051C11.3188 24.7561 11.2869 24.8493 11.3134 24.935C11.3403 25.0207 11.4194 25.0789 11.5092 25.0789H12.325L12.3256 35.7268C12.3297 36.4629 12.921 37.0637 13.6733 37.0827C13.6818 37.0836 13.69 37.0843 13.6986 37.0843H19.5424H19.5459C19.5996 37.0833 19.6483 37.0618 19.6844 37.0274C19.6844 37.0274 19.6844 37.0274 19.6847 37.027C19.6853 37.0264 19.6859 37.0258 19.6863 37.0255C19.6866 37.0251 19.6869 37.0251 19.6872 37.0245L19.6875 37.0242L19.6878 37.0239L19.6882 37.0236L19.6885 37.0232L19.6888 37.0229L19.6891 37.0226C19.6897 37.0223 19.6894 37.0223 19.6897 37.022C19.6897 37.022 19.6897 37.022 19.69 37.0217L19.6904 37.0214C19.6904 37.0214 19.6904 37.0214 19.6907 37.021C19.7261 36.9844 19.7482 36.9347 19.7485 36.8797V36.8791V36.8787V36.8784V36.8781V36.8778V36.8775V36.8772V36.8765C19.747 36.7956 19.698 36.7248 19.6274 36.6928Z"/><path id="Vector_3" fill="#F4B21B" d="M28.0818 36.6928C28.0818 36.6928 28.0815 36.6925 28.0812 36.6925C28.0809 36.6925 28.0806 36.6922 28.0802 36.6922H28.0799L28.0796 36.6919L28.0793 36.6916H28.079L28.0787 36.6912L28.0783 36.6909C28.0787 36.6906 28.078 36.6906 28.0777 36.6906L28.0774 36.6903H28.0771C28.0768 36.6903 28.0768 36.69 28.0768 36.69C28.0761 36.6903 28.0761 36.6897 28.0761 36.6897L28.0755 36.6893L28.0752 36.689H28.0749L28.0746 36.6887L28.0742 36.6884C28.0739 36.6881 28.0736 36.6881 28.0736 36.6881C28.0733 36.6884 28.0733 36.6878 28.0727 36.6878L28.0723 36.6874L28.072 36.6871C28.072 36.6871 28.0717 36.6871 28.0714 36.6868C28.0711 36.6865 28.0704 36.6865 28.0701 36.6865C28.0698 36.6865 28.0692 36.6862 28.0689 36.6862C28.0685 36.6859 28.0685 36.6859 28.0682 36.6859C28.0679 36.6859 28.0679 36.6859 28.0676 36.6855C28.0676 36.6855 28.0673 36.6855 28.067 36.6852C28.066 36.6849 28.0666 36.6849 28.0663 36.6849C28.0654 36.6849 28.066 36.6849 28.0657 36.6846C28.0657 36.6846 28.0654 36.6843 28.0651 36.6843L28.0647 36.684H28.0644C28.0458 36.6773 28.0259 36.6732 28.005 36.6723H28.0044H28.004H28.0034H28.0031H28.0028H28.0025L28.0021 36.672H28.0015H28.0009H28.0006H28.0002H27.9999H27.9993H27.9987H27.9983H27.998H27.9977H27.9974H27.9971H27.9968H27.9964H27.9961H27.9958C27.4725 36.672 27.044 36.2457 27.0409 35.7233V27.4625H27.8564C27.8592 27.4621 27.8614 27.4621 27.8646 27.4625C27.9778 27.4625 28.0695 27.3708 28.0695 27.2576C28.0695 27.1719 28.017 27.0985 27.9424 27.0678L24.0278 24.3662C23.9576 24.3178 23.8649 24.3178 23.7947 24.3662L19.8513 27.0887C19.7773 27.1396 19.7454 27.2329 19.7719 27.3186C19.7988 27.4043 19.8779 27.4625 19.9677 27.4625H20.7797L20.7803 35.7265C20.7838 36.4629 21.3761 37.064 22.1286 37.0827C22.1368 37.0837 22.1451 37.084 22.1533 37.084H27.9971H28.0006C28.0543 37.083 28.103 37.0615 28.1391 37.0271C28.1391 37.0271 28.1391 37.027 28.1394 37.0267C28.14 37.0261 28.1413 37.0255 28.141 37.0252C28.1413 37.0248 28.1416 37.0248 28.1419 37.0242L28.1422 37.0239L28.1425 37.0236L28.1429 37.0233C28.1429 37.0233 28.1432 37.0233 28.1432 37.0229L28.1435 37.0226C28.1438 37.0226 28.1438 37.0223 28.1438 37.0223C28.1447 37.022 28.1444 37.022 28.1444 37.0217C28.1444 37.0217 28.1444 37.0217 28.1447 37.0214C28.1447 37.0214 28.1447 37.0214 28.1451 37.021C28.1451 37.021 28.1451 37.021 28.1454 37.0207C28.1808 36.984 28.2029 36.9344 28.2032 36.8794V36.8787V36.8784V36.8781V36.8778V36.8775V36.8772V36.8769V36.8762C28.2014 36.7956 28.1523 36.7248 28.0818 36.6928Z"/><path id="Vector_4" fill="#F2D864" d="M36.5586 36.6928L36.558 36.6925C36.5577 36.6925 36.5574 36.6922 36.5571 36.6922H36.5568L36.5564 36.6919L36.5561 36.6916C36.5558 36.6916 36.5558 36.6916 36.5558 36.6912H36.5555L36.5552 36.6909L36.5549 36.6906C36.5549 36.6906 36.5545 36.6906 36.5545 36.6903H36.5542L36.5539 36.69C36.5536 36.6903 36.5536 36.6897 36.5533 36.6897C36.5536 36.6894 36.553 36.6894 36.5526 36.6894L36.5523 36.689H36.552L36.5517 36.6887L36.5514 36.6884C36.5504 36.6881 36.5507 36.6881 36.5507 36.6881C36.5504 36.6884 36.5504 36.6878 36.5498 36.6878L36.5495 36.6875C36.5498 36.6871 36.5492 36.6871 36.5488 36.6871C36.5488 36.6871 36.5485 36.6871 36.5485 36.6868C36.5482 36.6865 36.5476 36.6865 36.5473 36.6865C36.5469 36.6865 36.5463 36.6862 36.546 36.6862L36.5454 36.6859C36.5454 36.6859 36.5451 36.6859 36.5447 36.6856L36.5441 36.6852C36.5432 36.6849 36.5432 36.6849 36.5435 36.6849C36.5425 36.6849 36.5425 36.6849 36.5428 36.6846C36.5425 36.6846 36.5425 36.6843 36.5425 36.6843C36.5422 36.6843 36.5419 36.684 36.5419 36.684H36.5416C36.5229 36.6773 36.503 36.6732 36.4821 36.6723H36.4818H36.4812H36.4802H36.4799H36.4796H36.4793C36.479 36.672 36.479 36.672 36.4786 36.672H36.478H36.4774H36.4771H36.4767H36.4764H36.4758H36.4752C36.4752 36.672 36.4752 36.672 36.4749 36.672H36.4745H36.4742H36.4739H36.4736H36.4733H36.473H36.4742H36.4739C35.9506 36.672 35.5221 36.2457 35.519 35.7233V29.8454H36.3326H36.3367C36.4521 29.8426 36.5457 29.7553 36.5457 29.6405C36.5457 29.5548 36.4932 29.4814 36.4186 29.4508L32.5039 26.7491C32.4341 26.7007 32.3411 26.7007 32.2709 26.7491L28.3259 29.4716C28.2519 29.5226 28.22 29.6158 28.2466 29.7015C28.2734 29.7872 28.3525 29.8454 28.4423 29.8454H29.2559L29.2565 35.7265C29.2606 36.4629 29.8526 37.0644 30.6048 37.0827C30.613 37.0837 30.6213 37.084 30.6295 37.084H36.4733H36.4767C36.5305 37.083 36.5792 37.0615 36.6152 37.0271L36.6156 37.0267C36.6162 37.0261 36.6171 37.0255 36.6171 37.0252C36.6175 37.0248 36.6178 37.0248 36.6181 37.0242L36.6184 37.0239L36.6187 37.0236L36.619 37.0233L36.6194 37.0229L36.6197 37.0226L36.62 37.0223C36.6209 37.022 36.6203 37.022 36.6206 37.0217C36.6206 37.0217 36.6206 37.0217 36.6209 37.0214L36.6213 37.0211C36.6213 37.0211 36.6213 37.0211 36.6216 37.0207C36.657 36.9841 36.6791 36.9344 36.6794 36.8794V36.8788V36.8784V36.8781V36.8778V36.8775V36.8772V36.8769V36.8762C36.6782 36.7956 36.6288 36.7248 36.5586 36.6928Z"/></g></g></svg>

<svg xmlns="http://www.w3.org/2000/svg" fill="none" aria-hidden="true" viewBox="0 0 48 48"><path fill="#0071CE" d="M38.16 36.169a1.212 1.212 0 0 1-.377-2.363c2.305-.755 3.794-2.774 3.794-5.146a5.454 5.454 0 0 0-5.448-5.449c-.209 0-.433.017-.706.052l-1.185.154-.17-1.183c-.728-5.071-5.146-8.896-10.276-8.896-4.242 0-8.018 2.54-9.619 6.47l-.301.739-.798.014c-3.667.068-6.65 3.105-6.65 6.77 0 2.675 1.553 5.116 3.957 6.216a1.211 1.211 0 0 1-1.008 2.203C6.109 34.256 4 30.952 4 27.33c0-4.71 3.63-8.658 8.242-9.142a12.757 12.757 0 0 1 11.55-7.272c5.951 0 11.125 4.172 12.466 9.874 4.28.07 7.742 3.573 7.742 7.87 0 3.386-2.196 6.379-5.463 7.448-.125.041-.252.06-.377.06Z"/><path fill="#DC8327" d="M19.627 36.693h-.001v-.001h-.001l-.001-.001h-.001v-.001h-.002v-.001h-.002v-.001h-.001v-.001h-.002l-.002-.001h-.002v-.001h-.001a.205.205 0 0 0-.06-.012h-.008a.958.958 0 0 1-.956-.949V25.079h.816c.125.005.21-.09.21-.205a.205.205 0 0 0-.128-.19l-3.914-2.702a.205.205 0 0 0-.233 0l-3.945 2.723a.205.205 0 0 0 .116.374h.816v10.648a1.37 1.37 0 0 0 1.374 1.357h5.847a.206.206 0 0 0 .138-.057l.002-.002h.001v-.001h.001v-.001h.001v-.001h.001v-.001a.204.204 0 0 0 .058-.141v-.004a.207.207 0 0 0-.12-.183Z"/><path fill="#F4B21B" d="M28.082 36.693h-.002v-.001h-.001v-.001h-.001l-.001-.001h-.002v-.001h-.001l-.001-.001h-.001v-.001h-.003v-.001h-.002v-.001h-.001l-.001-.001a.2.2 0 0 0-.06-.012h-.01a.957.957 0 0 1-.955-.949v-8.26h.824a.205.205 0 0 0 .077-.395l-3.914-2.702a.205.205 0 0 0-.233 0L19.85 27.09a.205.205 0 0 0 .117.373h.812v8.265a1.37 1.37 0 0 0 1.373 1.357H28a.206.206 0 0 0 .138-.057l.002-.002.001-.001.001-.001.001-.001.001-.001a.204.204 0 0 0 .058-.142v-.002a.207.207 0 0 0-.121-.184Z"/><path fill="#F2D864" d="M36.559 36.693h-.002v-.001h-.001v-.001h-.001l-.001-.001h-.001v-.001h-.002l-.001-.001h-.001v-.001h-.003v-.001h-.001l-.002-.001-.001-.001a.202.202 0 0 0-.06-.012h-.01.001a.957.957 0 0 1-.955-.949v-5.878h.818a.208.208 0 0 0 .209-.204.205.205 0 0 0-.127-.19l-3.915-2.702a.205.205 0 0 0-.233 0l-3.945 2.723a.205.205 0 0 0 .116.373h.814v5.882a1.37 1.37 0 0 0 1.373 1.357h5.848a.205.205 0 0 0 .138-.057l.002-.002h.001v-.001h.001v-.001h.001v-.001h.001v-.001a.204.204 0 0 0 .058-.142v-.002a.206.206 0 0 0-.12-.184Z"/></svg>
